img/logo.svg

<svg width="44" height="45" viewBox="0 0 44 45" fill="none" xmlns="http://www.w3.org/2000/svg">
<rect y="0.00244141" width="44" height="44" rx="16" fill="#40BFFF"/>
<path fill-rule="evenodd" clip-rule="evenodd" d="M31.0619 20.274C32.0165 21.2286 32.0165 22.7763 31.0619 23.7309L23.7285 31.0643C22.7739 32.0189 21.2262 32.0189 20.2716 31.0643L12.9382 23.7309C11.9836 22.7763 11.9836 21.2286 12.9382 20.274L20.2716 12.9406C21.2262 11.986 22.7739 11.986 23.7285 12.9406L31.0619 20.274ZM22.0001 18.1261L18.1237 22.0024L22.0001 25.8788L25.8764 22.0024L22.0001 18.1261Z" fill="white"/>
</svg>

<svg width="44" height="45" fill="none" xmlns="http://www.w3.org/2000/svg"><rect y=".002" width="44" height="44" rx="16" fill="#40BFFF"/><path fill-rule="evenodd" clip-rule="evenodd" d="M31.062 20.274a2.444 2.444 0 0 1 0 3.457l-7.334 7.333a2.444 2.444 0 0 1-3.456 0l-7.334-7.333a2.444 2.444 0 0 1 0-3.457l7.334-7.333a2.444 2.444 0 0 1 3.457 0l7.333 7.333ZM22 18.126l-3.876 3.876L22 25.88l3.876-3.877L22 18.126Z" fill="#fff"/></svg>
